static/img/in-field/lists-focus.svg

<svg fill="none" height="56" viewBox="0 0 511 56" width="511" xmlns="http://www.w3.org/2000/svg"><path d="m2.5 2h506v52h-506z" fill="#fff"/><path d="m18.6484 37v-15.7051h1.8262v14.0723h6.9717v1.6328zm13.2588-11.7734v11.7734h-1.7832v-11.7734zm-.8701-4.4043c.2936 0 .5443.0966.752.29.2148.1862.3222.4798.3222.8809 0 .3938-.1074.6875-.3222.8808-.2077.1934-.4584.2901-.752.2901-.3079 0-.5657-.0967-.7734-.2901-.2005-.1933-.3008-.487-.3008-.8808 0-.4011.1003-.6947.3008-.8809.2077-.1934.4655-.29.7734-.29zm12.5176 12.955c0 .752-.1898 1.3858-.5693 1.9014-.3724.5085-.9096.8916-1.6114 1.1494-.6946.2578-1.5254.3867-2.4922.3867-.8235 0-1.5361-.0644-2.1377-.1933-.6015-.1289-1.1279-.3115-1.5791-.5479v-1.6435c.4799.2363 1.0528.4511 1.7188.6445s1.3463.29 2.041.29c1.0169 0 1.7546-.1647 2.2129-.4941s.6875-.777.6875-1.3428c0-.3222-.0931-.6051-.2793-.8486-.179-.2506-.4834-.4906-.9131-.7197-.4297-.2364-1.0241-.4942-1.7832-.7735-.7519-.2864-1.4036-.5693-1.9551-.8486-.5442-.2865-.9668-.6338-1.2675-1.042-.2937-.4082-.4405-.9381-.4405-1.5898 0-.9955.4011-1.7582 1.2031-2.2881.8093-.5371 1.8692-.8057 3.1797-.8057.709 0 1.3715.0716 1.9873.2149.6231.136 1.2032.3222 1.7403.5586l-.6016 1.4287c-.487-.2077-1.0062-.3832-1.5576-.5264s-1.1136-.2148-1.6865-.2148c-.8236 0-1.4574.136-1.9014.4082-.4368.2721-.6553.6445-.6553 1.1171 0 .3653.1003.6661.3008.9024.2077.2363.5371.4583.9883.666s1.0456.4512 1.7832.7305c.7376.2721 1.375.555 1.9121.8486.5371.2865.9489.6374 1.2354 1.0527.2936.4082.4404.9346.4404 1.5791zm6.9209 1.9766c.2936 0 .5944-.0251.9023-.0752.308-.0501.5586-.111.752-.1826v1.3857c-.2077.0931-.4977.1719-.8701.2364-.3653.0644-.7233.0966-1.0743.0966-.623 0-1.1888-.1074-1.6972-.3222-.5085-.222-.9167-.5944-1.2246-1.1172-.3008-.5228-.4512-1.2461-.4512-2.1699v-6.9825h-1.6758v-.8701l1.6865-.6982.709-2.5567h1.0742v2.7286h3.4483v1.3964h-3.4483v6.9288c0 .7376.1683 1.289.5049 1.6543.3438.3652.7985.5478 1.3643.5478zm10.5224 1.2461v-15.7051h1.8262v15.7051zm9.9288-1.2461c.2936 0 .5944-.0251.9023-.0752s.5586-.111.752-.1826v1.3857c-.2077.0931-.4978.1719-.8702.2364-.3652.0644-.7233.0966-1.0742.0966-.623 0-1.1888-.1074-1.6972-.3222-.5085-.222-.9167-.5944-1.2247-1.1172-.3007-.5228-.4511-1.2461-.4511-2.1699v-6.9825h-1.6758v-.8701l1.6865-.6982.709-2.5567h1.0742v2.7286h3.4483v1.3964h-3.4483v6.9288c0 .7376.1683 1.289.5049 1.6543.3437.3652.7985.5478 1.3643.5478zm8.8222-10.7422c1.0026 0 1.862.222 2.5781.666.7162.444 1.264 1.0671 1.6436 1.8692.3796.7949.5693 1.7259.5693 2.7929v1.1065h-8.1318c.0215 1.3822.3652 2.4349 1.0313 3.1582.666.7233 1.6041 1.085 2.8144 1.085.7448 0 1.4037-.0681 1.9766-.2041.5729-.1361 1.1673-.3366 1.7832-.6016v1.5683c-.5944.265-1.1852.4584-1.7725.5801-.5801.1218-1.2676.1826-2.0625.1826-1.1315 0-2.1198-.2291-2.9648-.6875-.8379-.4655-1.4896-1.1458-1.9551-2.041s-.6983-1.9909-.6983-3.2871c0-1.2676.2113-2.3633.6338-3.2871.4297-.931 1.0313-1.6471 1.8047-2.1484.7806-.5013 1.6973-.752 2.75-.752zm-.0215 1.461c-.9524 0-1.7115.3115-2.2773.9345-.5658.6231-.9023 1.4932-1.0098 2.6104h6.2305c-.0072-.7018-.1182-1.3177-.333-1.8477-.2077-.5371-.5264-.9525-.9561-1.2461-.4297-.3008-.9811-.4511-1.6543-.4511zm20.8755-1.461c1.296 0 2.273.3402 2.932 1.0205.659.6732.988 1.7582.988 3.2549v7.7129h-1.761v-7.627c0-.9524-.208-1.665-.623-2.1376-.409-.4799-1.017-.7198-1.827-.7198-1.1382 0-1.9653.3295-2.4809.9883-.5157.6589-.7735 1.6292-.7735 2.9111v6.585h-1.7724v-7.627c0-.6373-.0931-1.1673-.2793-1.5898-.1791-.4225-.4512-.7376-.8164-.9453-.3581-.2149-.8129-.3223-1.3643-.3223-.7806 0-1.4072.1612-1.8799.4834-.4726.3223-.8164.8021-1.0312 1.4395-.2077.6302-.3116 1.4072-.3116 2.331v6.2305h-1.7832v-11.7734h1.4395l.2685 1.665h.0967c.2364-.4082.5336-.752.8916-1.0312.3581-.2793.7591-.4906 1.2032-.6338.444-.1433.9166-.2149 1.4179-.2149.8952 0 1.6436.1683 2.2451.5049.6088.3294 1.0492.8343 1.3213 1.5146h.0967c.3867-.6803.9167-1.1852 1.5898-1.5146.6732-.3366 1.4109-.5049 2.2134-.5049z" fill="#252a2e"/><path d="m2.5 2h506v52h-506z" stroke="#0084ff" stroke-width="4"/></svg>

<svg width="511" height="56" viewBox="0 0 511 56" fill="none" xmlns="http://www.w3.org/2000/svg"><rect x="2.5" y="2" width="506" height="52" fill="#fff"/><path d="M18.6484 37V21.2949H20.4746V35.3672H27.4463V37H18.6484ZM31.9072 25.2266V37H30.124V25.2266H31.9072ZM31.0371 20.8223C31.3307 20.8223 31.5814 20.9189 31.7891 21.1123C32.0039 21.2985 32.1113 21.5921 32.1113 21.9932C32.1113 22.387 32.0039 22.6807 31.7891 22.874C31.5814 23.0674 31.3307 23.1641 31.0371 23.1641C30.7292 23.1641 30.4714 23.0674 30.2637 22.874C30.0632 22.6807 29.9629 22.387 29.9629 21.9932C29.9629 21.5921 30.0632 21.2985 30.2637 21.1123C30.4714 20.9189 30.7292 20.8223 31.0371 20.8223ZM43.5547 33.7773C43.5547 34.5293 43.3649 35.1631 42.9854 35.6787C42.613 36.1872 42.0758 36.5703 41.374 36.8281C40.6794 37.0859 39.8486 37.2148 38.8818 37.2148C38.0583 37.2148 37.3457 37.1504 36.7441 37.0215C36.1426 36.8926 35.6162 36.71 35.165 36.4736V34.8301C35.6449 35.0664 36.2178 35.2812 36.8838 35.4746C37.5498 35.668 38.2301 35.7646 38.9248 35.7646C39.9417 35.7646 40.6794 35.5999 41.1377 35.2705C41.596 34.9411 41.8252 34.4935 41.8252 33.9277C41.8252 33.6055 41.7321 33.3226 41.5459 33.0791C41.3669 32.8285 41.0625 32.5885 40.6328 32.3594C40.2031 32.123 39.6087 31.8652 38.8496 31.5859C38.0977 31.2995 37.446 31.0166 36.8945 30.7373C36.3503 30.4508 35.9277 30.1035 35.627 29.6953C35.3333 29.2871 35.1865 28.7572 35.1865 28.1055C35.1865 27.11 35.5876 26.3473 36.3896 25.8174C37.1989 25.2803 38.2588 25.0117 39.5693 25.0117C40.2783 25.0117 40.9408 25.0833 41.5566 25.2266C42.1797 25.3626 42.7598 25.5488 43.2969 25.7852L42.6953 27.2139C42.2083 27.0062 41.6891 26.8307 41.1377 26.6875C40.5863 26.5443 40.0241 26.4727 39.4512 26.4727C38.6276 26.4727 37.9938 26.6087 37.5498 26.8809C37.113 27.153 36.8945 27.5254 36.8945 27.998C36.8945 28.3633 36.9948 28.6641 37.1953 28.9004C37.403 29.1367 37.7324 29.3587 38.1836 29.5664C38.6348 29.7741 39.2292 30.0176 39.9668 30.2969C40.7044 30.569 41.3418 30.8519 41.8789 31.1455C42.416 31.432 42.8278 31.7829 43.1143 32.1982C43.4079 32.6064 43.5547 33.1328 43.5547 33.7773ZM50.4756 35.7539C50.7692 35.7539 51.07 35.7288 51.3779 35.6787C51.6859 35.6286 51.9365 35.5677 52.1299 35.4961V36.8818C51.9222 36.9749 51.6322 37.0537 51.2598 37.1182C50.8945 37.1826 50.5365 37.2148 50.1855 37.2148C49.5625 37.2148 48.9967 37.1074 48.4883 36.8926C47.9798 36.6706 47.5716 36.2982 47.2637 35.7754C46.9629 35.2526 46.8125 34.5293 46.8125 33.6055V26.623H45.1367V25.7529L46.8232 25.0547L47.5322 22.498H48.6064V25.2266H52.0547V26.623H48.6064V33.5518C48.6064 34.2894 48.7747 34.8408 49.1113 35.2061C49.4551 35.5713 49.9098 35.7539 50.4756 35.7539ZM60.998 37V21.2949H62.8242V37H60.998ZM70.9268 35.7539C71.2204 35.7539 71.5212 35.7288 71.8291 35.6787C72.137 35.6286 72.3877 35.5677 72.5811 35.4961V36.8818C72.3734 36.9749 72.0833 37.0537 71.7109 37.1182C71.3457 37.1826 70.9876 37.2148 70.6367 37.2148C70.0137 37.2148 69.4479 37.1074 68.9395 36.8926C68.431 36.6706 68.0228 36.2982 67.7148 35.7754C67.4141 35.2526 67.2637 34.5293 67.2637 33.6055V26.623H65.5879V25.7529L67.2744 25.0547L67.9834 22.498H69.0576V25.2266H72.5059V26.623H69.0576V33.5518C69.0576 34.2894 69.2259 34.8408 69.5625 35.2061C69.9062 35.5713 70.361 35.7539 70.9268 35.7539ZM79.749 25.0117C80.7516 25.0117 81.611 25.2337 82.3271 25.6777C83.0433 26.1217 83.5911 26.7448 83.9707 27.5469C84.3503 28.3418 84.54 29.2728 84.54 30.3398V31.4463H76.4082C76.4297 32.8285 76.7734 33.8812 77.4395 34.6045C78.1055 35.3278 79.0436 35.6895 80.2539 35.6895C80.9987 35.6895 81.6576 35.6214 82.2305 35.4854C82.8034 35.3493 83.3978 35.1488 84.0137 34.8838V36.4521C83.4193 36.7171 82.8285 36.9105 82.2412 37.0322C81.6611 37.154 80.9736 37.2148 80.1787 37.2148C79.0472 37.2148 78.0589 36.9857 77.2139 36.5273C76.376 36.0618 75.7243 35.3815 75.2588 34.4863C74.7933 33.5911 74.5605 32.4954 74.5605 31.1992C74.5605 29.9316 74.7718 28.8359 75.1943 27.9121C75.624 26.9811 76.2256 26.265 76.999 25.7637C77.7796 25.2624 78.6963 25.0117 79.749 25.0117ZM79.7275 26.4727C78.7751 26.4727 78.016 26.7842 77.4502 27.4072C76.8844 28.0303 76.5479 28.9004 76.4404 30.0176H82.6709C82.6637 29.3158 82.5527 28.6999 82.3379 28.1699C82.1302 27.6328 81.8115 27.2174 81.3818 26.9238C80.9521 26.623 80.4007 26.4727 79.7275 26.4727ZM100.603 25.0117C101.899 25.0117 102.876 25.3519 103.535 26.0322C104.194 26.7054 104.523 27.7904 104.523 29.2871V37H102.762V29.373C102.762 28.4206 102.554 27.708 102.139 27.2354C101.73 26.7555 101.122 26.5156 100.312 26.5156C99.1738 26.5156 98.3467 26.8451 97.8311 27.5039C97.3154 28.1628 97.0576 29.1331 97.0576 30.415V37H95.2852V29.373C95.2852 28.7357 95.1921 28.2057 95.0059 27.7832C94.8268 27.3607 94.5547 27.0456 94.1895 26.8379C93.8314 26.623 93.3766 26.5156 92.8252 26.5156C92.0446 26.5156 91.418 26.6768 90.9453 26.999C90.4727 27.3213 90.1289 27.8011 89.9141 28.4385C89.7064 29.0687 89.6025 29.8457 89.6025 30.7695V37H87.8193V25.2266H89.2588L89.5273 26.8916H89.624C89.8604 26.4834 90.1576 26.1396 90.5156 25.8604C90.8737 25.5811 91.2747 25.3698 91.7188 25.2266C92.1628 25.0833 92.6354 25.0117 93.1367 25.0117C94.0319 25.0117 94.7803 25.18 95.3818 25.5166C95.9906 25.846 96.431 26.3509 96.7031 27.0312H96.7998C97.1865 26.3509 97.7165 25.846 98.3896 25.5166C99.0628 25.18 99.8005 25.0117 100.603 25.0117Z" fill="#252A2E"/><rect x="2.5" y="2" width="506" height="52" stroke="#0084FF" stroke-width="4"/></svg>
